common/svg/pin-icon.svg

<svg fill="none" height="20" viewBox="0 0 20 20" width="20" xmlns="http://www.w3.org/2000/svg"><path d="m15.755 14.3367-1.453 2.5168-5.03355-2.9062-2.90609 5.0335-1.32327.3546-.35456-1.3233 2.90609-5.0335-5.03349-2.906 1.45305-2.51677c.53499-.92664 1.71989-1.24413 2.64653-.70913l2.90609-5.03356c.535-.926645 1.7199-1.244135 2.6465-.70914l5.0335 2.9061c.9267.53499 1.2442 1.71989.7092 2.64653l-2.9061 5.03357c.9266.535 1.2441 1.7199.7091 2.6465z" fill="#000"/></svg>

<svg width="20" height="20" viewBox="0 0 20 20" fill="none" xmlns="http://www.w3.org/2000/svg">
<path d="M15.755 14.3367L14.302 16.8535L9.26845 13.9473L6.36236 18.9808L5.03909 19.3354L4.68453 18.0121L7.59062 12.9786L2.55713 10.0726L4.01018 7.55583C4.54517 6.62919 5.73007 6.3117 6.65671 6.8467L9.5628 1.81314C10.0978 0.886495 11.2827 0.569005 12.2093 1.104L17.2428 4.0101C18.1695 4.54509 18.487 5.72999 17.952 6.65663L15.0459 11.6902C15.9725 12.2252 16.29 13.4101 15.755 14.3367Z" fill="black"/>
</svg>
